dist/images/bp.svg

<svg width="41" height="41" viewBox="0 0 41 41" fill="none" xmlns="http://www.w3.org/2000/svg">
<circle cx="20.5" cy="20.5" r="20" stroke="#F37021"/>
<path d="M27.7493 24.8903L24.2771 21.7333C24.113 21.5842 23.8973 21.5046 23.6756 21.5115C23.4539 21.5183 23.2436 21.611 23.089 21.7701L21.045 23.8722C20.553 23.7782 19.5638 23.4699 18.5457 22.4543C17.5275 21.4352 17.2191 20.4435 17.1277 19.955L19.2281 17.9101C19.3874 17.7556 19.4802 17.5452 19.4871 17.3235C19.4939 17.1017 19.4143 16.886 19.2649 16.7219L16.1087 13.2506C15.9593 13.0861 15.7516 12.9862 15.5297 12.9724C15.3079 12.9585 15.0894 13.0316 14.9206 13.1763L13.067 14.7659C12.9194 14.9141 12.8312 15.1114 12.8193 15.3203C12.8065 15.5338 12.5622 20.5922 16.4846 24.5162C19.9064 27.9371 24.1926 28.1874 25.373 28.1874C25.5456 28.1874 25.6515 28.1823 25.6797 28.1806C25.8885 28.1689 26.0857 28.0804 26.2332 27.932L27.8219 26.0776C27.9671 25.9094 28.0408 25.691 28.0273 25.4692C28.0137 25.2474 27.9139 25.0396 27.7493 24.8903Z" fill="#F37021"/>
</svg>

<svg width="41" height="41" fill="none" xmlns="http://www.w3.org/2000/svg"><circle cx="20.5" cy="20.5" r="20" stroke="#F37021"/><path d="m27.75 24.89-3.473-3.157a.855.855 0 0 0-1.188.037l-2.044 2.102c-.492-.094-1.481-.402-2.5-1.418-1.018-1.019-1.326-2.01-1.417-2.499l2.1-2.045a.854.854 0 0 0 .037-1.188l-3.156-3.471a.854.854 0 0 0-1.188-.075l-1.854 1.59a.855.855 0 0 0-.248.554c-.013.214-.257 5.272 3.666 9.196 3.421 3.421 7.708 3.671 8.888 3.671.173 0 .278-.005.307-.006a.847.847 0 0 0 .553-.249l1.589-1.854a.852.852 0 0 0-.073-1.188Z" fill="#F37021"/></svg>
